assets/dashboard/img/icon/widgets.svg

<svg enable-background="new -52 -52 128 128" height="128" viewBox="-52 -52 128 128" width="128" xmlns="http://www.w3.org/2000/svg"><path d="m17.67 18.78v50.07h50.067v-50.07zm-62.585 50.07h50.065v-50.07h-50.065zm0-112.651v50.069h50.065v-50.069zm85.495-8.199-35.43 35.36 35.43 35.42 35.42-35.42z" fill="#308af4"/><path d="m0 0h24v24h-24z" fill="none"/></svg>

<?xml version="1.0" encoding="utf-8"?>

<!DOCTYPE svg PUBLIC "-//W3C//DTD SVG 1.1//EN" "http://www.w3.org/Graphics/SVG/1.1/DTD/svg11.dtd">
<svg version="1.1" id="Layer_1" xmlns="http://www.w3.org/2000/svg" x="0px" y="0px"
	 width="128px" height="128px" viewBox="-52 -52 128 128" enable-background="new -52 -52 128 128" xml:space="preserve">
<path fill="#308AF4" d="M17.67,18.78V68.85h50.067V18.78H17.67z M-44.915,68.85H5.15V18.78h-50.065V68.85z M-44.915-43.801V6.268
	H5.15v-50.069H-44.915z M40.58-52L5.15-16.64l35.43,35.42L76-16.64L40.58-52z"/>
<path fill="none" d="M0,0h24v24H0V0z"/>
</svg>
